public/images/icons/src/List.svg

<?xml version="1.0" encoding="utf-8"?> <!-- Generator: IcoMoon.io --> <!DOCTYPE svg PUBLIC "-//W3C//DTD SVG 1.1//EN" "http://www.w3.org/Graphics/SVG/1.1/DTD/svg11.dtd"> <svg width="32" height="32" viewBox="0 0 32 32" version="1.1" xmlns="http://www.w3.org/2000/svg" xmlns:xlink="http://www.w3.org/1999/xlink" xmlns:sketch="http://www.bohemiancoding.com/sketch/ns" fill="#000000"> <g><path d="M 4.48,7.68 L 4.48,11.52 L 0.64,11.52 L 0.64,7.68 Z M 1.92,8.96 L 1.92,10.24 L 3.2,10.24 L 3.2,8.96 Z M 1.92,8.96M 4.48,14.080 L 4.48,17.92 L 0.64,17.92 L 0.64,14.080 Z M 1.92,15.36 L 1.92,16.64 L 3.2,16.64 L 3.2,15.36 Z M 1.92,15.36M 4.48,20.48 L 4.48,24.32 L 0.64,24.32 L 0.64,20.48 Z M 1.92,23.040 L 3.2,23.040 L 3.2,21.76 L 1.92,21.76 Z M 1.92,23.040M 26.24,7.68 L 26.24,11.52 L 7.040,11.52 L 7.040,7.68 Z M 8.32,10.24 L 24.96,10.24 L 24.96,8.96 L 8.32,8.96 Z M 8.32,10.24M 31.36,14.080 L 31.36,17.92 L 7.040,17.92 L 7.040,14.080 Z M 8.32,15.36 L 8.32,16.64 L 30.080,16.64 L 30.080,15.36 Z M 8.32,15.36M 22.4,20.48 L 22.4,24.32 L 7.040,24.32 L 7.040,20.48 Z M 8.32,21.76 L 8.32,23.040 L 21.12,23.040 L 21.12,21.76 Z M 8.32,21.76"></path></g></svg>

<?xml version="1.0" encoding="utf-8"?>
<!-- Generated by IcoMoon.io -->
<!DOCTYPE svg PUBLIC "-//W3C//DTD SVG 1.1//EN" "http://www.w3.org/Graphics/SVG/1.1/DTD/svg11.dtd">
<svg version="1.1" xmlns="http://www.w3.org/2000/svg" xmlns:xlink="http://www.w3.org/1999/xlink" width="32" height="32" viewBox="0 0 32 32">
<path fill="#444444" d="M4.48 7.68v3.84h-3.84v-3.84zM1.92 8.96v1.28h1.28v-1.28zM4.48 14.080v3.84h-3.84v-3.84zM1.92 15.36v1.28h1.28v-1.28zM4.48 20.48v3.84h-3.84v-3.84zM1.92 23.040h1.28v-1.28h-1.28zM26.24 7.68v3.84h-19.2v-3.84zM8.32 10.24h16.64v-1.28h-16.64zM31.36 14.080v3.84h-24.32v-3.84zM8.32 15.36v1.28h21.76v-1.28zM22.4 20.48v3.84h-15.36v-3.84zM8.32 21.76v1.28h12.8v-1.28z"></path>
</svg>
